picto/bike-station-right.svg

<svg class="color-immutable" width="24" height="24" viewBox="0 0 24 24" fill="none" xmlns="http://www.w3.org/2000/svg"><path d="M0 22.5V1.5C0 0.675 0.675 0 1.5 0H22.5C23.325 0 24 0.675 24 1.5V22.5C24 23.325 23.325 24 22.5 24H1.5C0.675 24 0 23.325 0 22.5Z" fill="#2D327D"/><path d="M9.37501 5.43801L10.125 6.18801L10.875 5.43801L11.625 6.18801L12.563 5.25001L11.625 4.31201H7.33601C6.97801 3.51601 6.17901 2.96201 5.25001 2.96201C3.98701 2.96201 2.96301 3.98601 2.96301 5.24901C2.96301 6.51201 3.98701 7.53701 5.25001 7.53701C6.17901 7.53701 6.97801 6.98301 7.33601 6.18701H8.62501L9.37501 5.43801ZM4.12501 6.00001C3.71101 6.00001 3.37501 5.66401 3.37501 5.25001C3.37501 4.83601 3.71101 4.50001 4.12501 4.50001C4.53901 4.50001 4.87501 4.83601 4.87501 5.25001C4.87501 5.66401 4.53901 6.00001 4.12501 6.00001Z" fill="white"/><path d="M21 12.488V11.25L12 7.125L3 11.25V12.488L12 8.363L21 12.488Z" fill="white"/><path d="M10.263 12.946L8.67899 13.5C8.64499 13.513 8.60699 13.519 8.57099 13.519C8.46099 13.519 8.35999 13.465 8.29899 13.374L7.94299 12.846C7.91399 12.802 7.89899 12.751 7.89899 12.7C7.89899 12.555 8.01599 12.437 8.16099 12.437H10.177C10.323 12.437 10.44 12.555 10.44 12.7C10.44 12.81 10.368 12.91 10.263 12.946Z" fill="white"/><path d="M15.807 12.961H13.509V12.436H15.807C15.952 12.436 16.069 12.554 16.069 12.699C16.069 12.843 15.952 12.961 15.807 12.961Z" fill="white"/><path d="M15.807 13.814H15.479C15.334 13.814 15.216 13.696 15.216 13.552C15.216 13.407 15.334 13.289 15.479 13.289H15.807C15.952 13.289 16.069 13.407 16.069 13.552C16.068 13.696 15.951 13.814 15.807 13.814Z" fill="white"/><path d="M7.341 14.568C5.566 14.568 4.125 16.008 4.125 17.784C4.125 19.559 5.566 21 7.341 21C9.002 21 10.391 19.734 10.543 18.079H11.228C11.369 18.379 11.67 18.571 12.002 18.571C12.472 18.571 12.855 18.188 12.855 17.718C12.855 17.526 12.791 17.341 12.672 17.191L14.392 14.634L14.745 15.201C13.927 15.809 13.446 16.766 13.446 17.784C13.446 19.558 14.886 21 16.661 21C18.436 21 19.877 19.559 19.877 17.784C19.877 16.008 18.437 14.568 16.661 14.568C16.15 14.568 15.646 14.69 15.191 14.924L14.561 13.913H9.441L8.811 14.924C8.357 14.69 7.852 14.568 7.341 14.568ZM13.969 17.784C13.969 16.947 14.358 16.158 15.022 15.649L16.437 17.922C16.485 17.999 16.569 18.046 16.66 18.046C16.806 18.046 16.922 17.928 16.922 17.783C16.922 17.733 16.908 17.686 16.883 17.644L15.468 15.37C15.839 15.187 16.246 15.092 16.66 15.092C18.145 15.092 19.351 16.297 19.351 17.783C19.351 19.268 18.145 20.474 16.66 20.474C15.174 20.475 13.969 19.27 13.969 17.784ZM11.765 16.898L10.11 14.437H13.89L12.235 16.898C12.159 16.876 12.08 16.866 12.001 16.866C11.921 16.866 11.842 16.876 11.765 16.898ZM10.548 17.554C10.48 16.619 10.009 15.759 9.256 15.201L9.61 14.634L11.329 17.191C11.245 17.297 11.188 17.422 11.162 17.554H10.548ZM8.979 15.649C9.579 16.109 9.958 16.8 10.022 17.554H7.793L8.979 15.649ZM7.341 20.475C5.856 20.475 4.651 19.27 4.651 17.784C4.651 16.298 5.856 15.093 7.341 15.093C7.755 15.093 8.163 15.188 8.533 15.371L7.358 17.26C7.353 17.259 7.347 17.259 7.341 17.259C7.052 17.259 6.817 17.495 6.817 17.785C6.817 18.074 7.052 18.31 7.341 18.31C7.515 18.31 7.677 18.224 7.775 18.08H10.016C9.865 19.442 8.713 20.475 7.341 20.475Z" fill="white"/></svg>

<svg class="color-immutable" width="24" height="24" viewBox="0 0 24 24" fill="none" xmlns="http://www.w3.org/2000/svg"><g clip-path="url(#a)"><path d="M0 22.5v-21C0 .675.675 0 1.5 0h21c.825 0 1.5.675 1.5 1.5v21c0 .825-.675 1.5-1.5 1.5h-21C.675 24 0 23.325 0 22.5Z" fill="#2D327D"/><path d="m9.375 5.438.75.75.75-.75.75.75.938-.938-.938-.938H7.336a2.286 2.286 0 0 0-4.373.937 2.288 2.288 0 0 0 4.373.938h1.289l.75-.749ZM4.125 6a.75.75 0 1 1 0-1.5.75.75 0 0 1 0 1.5ZM21 12.488V11.25l-9-4.125-9 4.125v1.238l9-4.125 9 4.125Z" fill="#fff"/><path d="m10.263 12.946-1.584.554a.326.326 0 0 1-.38-.126l-.356-.528a.262.262 0 0 1 .218-.409h2.016c.146 0 .263.118.263.263 0 .11-.072.21-.177.246ZM15.807 12.961h-2.298v-.525h2.298a.262.262 0 0 1 0 .525ZM15.807 13.814h-.328a.263.263 0 0 1 0-.525h.328a.262.262 0 0 1 0 .525ZM7.341 14.568a3.217 3.217 0 1 0 3.202 3.511h.685a.855.855 0 0 0 1.627-.361.846.846 0 0 0-.183-.527l1.72-2.557.353.567A3.217 3.217 0 0 0 16.661 21a3.216 3.216 0 1 0-1.47-6.076l-.63-1.011h-5.12l-.63 1.011a3.211 3.211 0 0 0-1.47-.356Zm6.628 3.216a2.69 2.69 0 0 1 1.053-2.135l1.415 2.273a.263.263 0 1 0 .446-.278l-1.415-2.274a2.692 2.692 0 1 1-1.499 2.414Zm-2.204-.886-1.655-2.461h3.78l-1.655 2.461a.856.856 0 0 0-.47 0Zm-1.217.656a3.219 3.219 0 0 0-1.292-2.353l.354-.567 1.719 2.557a.85.85 0 0 0-.167.363h-.614Zm-1.569-1.905c.6.46.979 1.151 1.043 1.905H7.793l1.186-1.905Zm-1.638 4.826a2.691 2.691 0 1 1 1.192-5.104L7.358 17.26l-.017-.001a.526.526 0 1 0 .434.821h2.241a2.692 2.692 0 0 1-2.675 2.395Z" fill="#fff"/></g><defs><clipPath id="a"><path fill="#fff" d="M0 0h24v24H0z"/></clipPath></defs></svg>
